!!!OTL: Der Jaeger und sein Lieb.
!!!OTL-incipit: ES BLIES EIN JAEGER WOL IN SEIN HORN
!!!COM: A. Pohlenz
!!!ARE: Europa, Mitteleuropa, Deutschland
!!!SCT: F0667
!!!TXL: @@DE
!!!YEM: Copyright 1995, estate of Helmut Schaffrath.
**kern	**text
*ICvox	*
*clefG2	*
*M6/8	*
*k[f#c#g#d#]	*
*E:	*
!LO:TX:a:t=In mäßiger Bewegung.	!
!LO:TX:a:t=P:only the highest voice encoded:problem	!
{8b/	1._Es
=1	=1
4b/	blies
8b/	ein
8.a/	Jäger
16cc#/	.
8dd#/	wohl
=2	=2
4ee/	in
8ee/	ſein
4ee/}	Horn,
{8ee/	tra-
=3	=3
4ff#/	-ra,
8b/	trara,
4ff#/	.
8b/	tra-
=4	=4
[>4.gg#	-ra!
8gg#]	.
8r}	.
{8g#	und
=5	=5
(>8.g#	wandel-
16g#)	.
8g#	-te
8.cc#/	ſtill
16cc#/	.
8cc#/	durch
=6	=6
(>8.dd#/	Dickicht
16cc#/)	.
8dd#/	und
4ee/}	Dorn,
{8ee/	tra-
=7	=7
4ff#/	-ra,
8ff#/	tra-
4ff#/	-ra,
8ff#/	tra-
=8	=8
[4.gg#	-ra!
4gg#]}	.
{8gg#	Er
=9	=9
4ff#	ſchoß
8b/	nicht
(>8.b/	Haa-
16cc#/)	-ſen
8b/	noch
=10	=10
(>8.ee/	Hühner
16ee/)	.
8ee/	noch
4ee/}	Reh',
{8ee/	denn
=11	=11
4ee/	ach!
8dd#/	im
8ee/	Herʒen
8ee/	.
8ff#/	war
=12	=12
4gg#	ihm
8gg#	ſo
4gg#;}	weh!
{8b/	tra-
=13	=13
4.aa/	-ra,
4.aa/	tra-
=14	=14
4.gg#/	-ra,
4.gg#/}	tra-
=15	=15
{4.ff#/	-ra,
4.ff#/	tra-
=16	=16
4.ee/}	-ra!
{4.ee/	ſeit
=17	=17
(>8.ee/	dem
16ee/)	er
8ee/	das
(>8.dd#/	Mägde-
16cc#/)	.
8dd#/	-lein
=18	=18
4.ee/}	ſah,
{4.ee/	ſeit
=19	=19
(>8.ee	dem
16ee)	er
8ee	das
8.dd#	Mägde-
16cc#	.
8dd#	-lein
=20	=20
4ee	ſah.
8r	.
4r}	.
==	==
!!!AGN: Staende -, Jaeger - Lied, Liebe
!!!ONB: ESAC (Essen Associative Code) Database: FINK
!!!AMT: compound duple
!!!AIN: vox
!!!EED: Helmut Schaffrath
!!!EEV: 1.0
!!!RDF**kern: > = above
!!!GTL: Soldaten- und Jaegerlieder
!!!source: Musikalischer Hausschatz der Deutschen. Eine Sammlung von über 1000 Liedern und Gesängen mit Singstimmen und Klavierbegleitung. Leipzig, Litterarisches Verlags-Haus.
!!!page: 441
!!!URL-scan: https://www.digitale-sammlungen.de/en/view/bsb11144622?page=408
!!!ENC: Anna Maria Matuszewska
!!!EEV: 2024/08/05
*-	*-
